**harm	**harte	**kern	**silbe	**kern	**silbe	**kern	**silbe	**rhyme	**timestamp	**phrase	**leadinstrument
*M4/4	*M4/4	*ICvox	*	*ICvox	*	*ICvox	*	*	*	*	*
*	*	*VRlead	*	*VRharmonize	*	*VRharmonize	*	*	*	*	*
*	*	*Hstimme	*	*Nstimme	*	*Nstimme	*	*	*	*	*
*c#:	*c#:	*c#:	*	*c#:	*	*c#:	*	*	*c#:	*c#:	*c#:
*	*	*M4/4	*	*M4/4	*	*M4/4	*	*	*	*	*
*	*	*clefF4	*	*clefF4	*	*clefGv2	*	*	*	*	*
1r;	N	r;	.	r;	.	r;	.	.	0	.	r
=1	=1	=1	=1	=1	=1	=1	=1	=1	=1	=1	=1
*>Letter>C	*>Letter>C	*>Letter>C	*>Letter>C	*>Letter>C	*>Letter>C	*>Letter>C	*>Letter>C	*>Letter>C	*>Letter>C	*>Letter>C	*>Letter>C
*>Label>Intro	*>Label>Intro	*>Label>Intro	*>Label>Intro	*>Label>Intro	*>Label>Intro	*>Label>Intro	*>Label>Intro	*>Label>Intro	*>Label>Intro	*>Label>Intro	*>Label>Intro
1r	N	1r	.	1r	.	1r	.	.	0.418	newline	drums
=2	=2	=2	=2	=2	=2	=2	=2	=2	=2	=2	=2
1r	N	1r	.	1r	.	1r	.	.	1.869	.	drums
=3	=3	=3	=3	=3	=3	=3	=3	=3	=3	=3	=3
1i	C#:5(b13)	1r	.	1r	.	1r	.	.	3.32	newline	synthesizer
=4	=4	=4	=4	=4	=4	=4	=4	=4	=4	=4	=4
1i	C#:5(b13)	1r	.	2r	.	1r	.	.	5.267	.	synthesizer
.	.	.	.	4BB 4B	Who's	.	.	.	.	.	.
.	.	.	.	8AA 8A	wa-	.	.	.	.	.	.
.	.	.	.	8GG# 8G#	-tching?	.	.	.	.	.	.
=5	=5	=5	=5	=5	=5	=5	=5	=5	=5	=5	=5
1i	C#:5(b13)	1r	.	1r	.	1r	.	.	7.213	.	synthesizer
=6	=6	=6	=6	=6	=6	=6	=6	=6	=6	=6	=6
1i	C#:5(b13)	1r	.	4r	.	1r	.	.	9.16	.	synthesizer
.	.	.	.	8GG# 8G#	Tell	.	.	.	.	.	.
.	.	.	.	8AA 8A	me,	.	.	.	.	.	.
.	.	.	.	4BB 4B	who's	.	.	.	.	.	.
.	.	.	.	8AA 8A	wa-	.	.	.	.	.	.
.	.	.	.	8GG# 8G#	-tching?	.	.	.	.	.	.
=7	=7	=7	=7	=7	=7	=7	=7	=7	=7	=7	=7
1i	C#:5(b13)	1r	.	2r	.	1r	.	.	11.106	newline	synthesizer
.	.	.	.	8r	.	.	.	.	.	.	.
.	.	.	.	8c#	Who's	.	.	.	.	.	.
.	.	.	.	8B	wa-	.	.	.	.	.	.
.	.	.	.	8A	-tching	.	.	.	.	.	.
=8	=8	=8	=8	=8	=8	=8	=8	=8	=8	=8	=8
1i	C#:5(b13)	1r	.	8A	me?	1r	.	.	13.046	.	synthesizer
.	.	.	.	8r	.	.	.	.	.	.	.
.	.	.	.	4r	.	.	.	.	.	.	.
.	.	.	.	2r	.	.	.	.	.	.	.
=9	=9	=9	=9	=9	=9	=9	=9	=9	=9	=9	=9
1i	C#:5(b13)	1r	.	1r	.	1r	.	.	14.986	.	synthesizer
=10	=10	=10	=10	=10	=10	=10	=10	=10	=10	=10	=10
1i	C#:5(b13)	1r	.	1r	.	1r	.	.	16.926	.	synthesizer
=11	=11	=11	=11	=11	=11	=11	=11	=11	=11	=11	=11
1i	C#:min	1r	.	1r	.	1r	.	.	18.866	newline	synthesizer
=12	=12	=12	=12	=12	=12	=12	=12	=12	=12	=12	=12
2-VI7	A:maj7	1r	.	1r	.	1r	.	.	20.789	.	synthesizer
2-VII	B:maj6	.	.	.	.	.	.	.	21.751	.	synthesizer
=13	=13	=13	=13	=13	=13	=13	=13	=13	=13	=13	=13
1i	C#:min	1r	.	1r	.	1r	.	.	22.713	.	synthesizer
=14	=14	=14	=14	=14	=14	=14	=14	=14	=14	=14	=14
2-VI	A:maj	1r	.	1r	.	1r	.	.	24.637	.	synthesizer
2-VII7	B:7	.	.	.	.	.	.	.	25.598	.	synthesizer
=15	=15	=15	=15	=15	=15	=15	=15	=15	=15	=15	=15
1i	C#:min	1r	.	1r	.	1r	.	.	26.56	newline	synthesizer
=16	=16	=16	=16	=16	=16	=16	=16	=16	=16	=16	=16
2-VI7	A:maj7	1r	.	1r	.	1r	.	.	28.497	.	synthesizer
2-VII	B:maj6	.	.	.	.	.	.	.	29.466	.	synthesizer
=17	=17	=17	=17	=17	=17	=17	=17	=17	=17	=17	=17
1i	C#:min	1r	.	1r	.	1r	.	.	30.434	.	synthesizer
=18	=18	=18	=18	=18	=18	=18	=18	=18	=18	=18	=18
2-VI	A:maj	1r	.	1r	.	1r	.	.	32.371	.	synthesizer
2-VII7	B:7	.	.	.	.	.	.	.	33.34	.	synthesizer
=19	=19	=19	=19	=19	=19	=19	=19	=19	=19	=19	=19
*>Letter>A	*>Letter>A	*>Letter>A	*>Letter>A	*>Letter>A	*>Letter>A	*>Letter>A	*>Letter>A	*>Letter>A	*>Letter>A	*>Letter>A	*>Letter>A
*>Label>Verse	*>Label>Verse	*>Label>Verse	*>Label>Verse	*>Label>Verse	*>Label>Verse	*>Label>Verse	*>Label>Verse	*>Label>Verse	*>Label>Verse	*>Label>Verse	*>Label>Verse
1i	C#:min	8r	.	1r	.	1r	.	.	34.308	newline	voice
.	.	8f#	I'm	.	.	.	.	.	.	.	.
.	.	8f#	just	.	.	.	.	.	.	.	.
.	.	16e	an	.	.	.	.	.	.	.	.
.	.	[16f#	a-	.	.	.	.	.	.	.	.
.	.	16f#]	_	.	.	.	.	.	.	.	.
.	.	8.f#	-verage	.	.	.	.	.	.	.	.
.	.	4c#	man,	.	.	.	.	.	.	.	.
=20	=20	=20	=20	=20	=20	=20	=20	=20	=20	=20	=20
1-VI	A:maj	4r	.	1r	.	1r	.	.	36.234	.	voice
.	.	8c#	with	.	.	.	.	.	.	.	.
.	.	16B	an	.	.	.	.	.	.	.	.
.	.	[16F#	a	.	.	.	.	.	.	.	.
.	.	16F#]	_	.	.	.	.	.	.	.	.
.	.	8.F#	verage	.	.	.	.	.	.	.	.
.	.	4E	life.	.	.	.	.	A	.	.	.
=21	=21	=21	=21	=21	=21	=21	=21	=21	=21	=21	=21
1i	C#:min	8r	.	1r	.	1r	.	.	38.159	.	voice
.	.	8B	I	.	.	.	.	.	.	.	.
.	.	8B	work	.	.	.	.	.	.	.	.
.	.	8B	from	.	.	.	.	.	.	.	.
.	.	8f#	nine	.	.	.	.	.	.	.	.
.	.	16f#	to	.	.	.	.	.	.	.	.
.	.	[16B	five,	.	.	.	.	A	.	.	.
.	.	4B]	_	.	.	.	.	.	.	.	.
=22	=22	=22	=22	=22	=22	=22	=22	=22	=22	=22	=22
2-VI	A:maj	8r	.	1r	.	1r	.	.	40.084	.	voice
.	.	8d#	hey,	.	.	.	.	.	.	.	.
.	.	8c#	hell,	.	.	.	.	.	.	.	.
.	.	8d#	I	.	.	.	.	.	.	.	.
2-VII	B:maj	8B	pay	.	.	.	.	.	41.047	.	voice
.	.	16A	the	.	.	.	.	.	.	.	.
.	.	[16A	price	.	.	.	.	A	.	.	.
.	.	8A]	_	.	.	.	.	.	.	.	.
.	.	8r	.	.	.	.	.	.	.	.	.
=23	=23	=23	=23	=23	=23	=23	=23	=23	=23	=23	=23
1i	C#:min	8r	.	1r	.	1r	.	.	42.009	newline	voice
.	.	16f#	All	.	.	.	.	.	.	.	.
.	.	16f#	I	.	.	.	.	.	.	.	.
.	.	16f#	want	.	.	.	.	.	.	.	.
.	.	16f#	is	.	.	.	.	.	.	.	.
.	.	16f#	to	.	.	.	.	.	.	.	.
.	.	16f#	be	.	.	.	.	.	.	.	.
.	.	8f#	left	.	.	.	.	.	.	.	.
.	.	16f#	a	.	.	.	.	.	.	.	.
.	.	16g	lone!	.	.	.	.	B	.	.	.
.	.	4c#	_	.	.	.	.	.	.	.	.
=24	=24	=24	=24	=24	=24	=24	=24	=24	=24	=24	=24
1-VI	A:maj	4r	.	1r	.	1r	.	.	43.954	.	voice
.	.	8c#	In	.	.	.	.	.	.	.	.
.	.	8B	my	.	.	.	.	.	.	.	.
.	.	8G#	a-	.	.	.	.	.	.	.	.
.	.	8F#	-verage	.	.	.	.	.	.	.	.
.	.	4F#	home.	.	.	.	.	B	.	.	.
=25	=25	=25	=25	=25	=25	=25	=25	=25	=25	=25	=25
1i	C#:min	8r	.	1r	.	1r	.	.	45.899	.	voice
.	.	8e	But	.	.	.	.	.	.	.	.
.	.	8f#	why	.	.	.	.	.	.	.	.
.	.	16e	do	.	.	.	.	.	.	.	.
.	.	16e	I	.	.	.	.	.	.	.	.
.	.	8a	al-	.	.	.	.	.	.	.	.
.	.	8a	-ways	.	.	.	.	.	.	.	.
.	.	4c#	feel...	.	.	.	.	.	.	.	.
=26	=26	=26	=26	=26	=26	=26	=26	=26	=26	=26	=26
2-VI	A:maj	8r	.	1r	.	1r	.	.	47.844	.	voice
.	.	16e	like	.	.	.	.	.	.	.	.
.	.	16e	I'm	.	.	.	.	.	.	.	.
.	.	8e	in	.	.	.	.	.	.	.	.
.	.	8e	the	.	.	.	.	.	.	.	.
2-VII	B:maj	8a	Twi-	.	.	.	.	.	48.816	.	voice
.	.	8g#	-light	.	.	.	.	.	.	.	.
.	.	8f#	Zone	.	.	.	.	B	.	.	.
.	.	8e	and...	.	.	.	.	.	.	.	.
=27	=27	=27	=27	=27	=27	=27	=27	=27	=27	=27	=27
*>Letter>B	*>Letter>B	*>Letter>B	*>Letter>B	*>Letter>B	*>Letter>B	*>Letter>B	*>Letter>B	*>Letter>B	*>Letter>B	*>Letter>B	*>Letter>B
*>Label>Chorus	*>Label>Chorus	*>Label>Chorus	*>Label>Chorus	*>Label>Chorus	*>Label>Chorus	*>Label>Chorus	*>Label>Chorus	*>Label>Chorus	*>Label>Chorus	*>Label>Chorus	*>Label>Chorus
1i	C#:min	8r	.	1r	.	1r	.	.	49.789	newline	voice
.	.	8c#	I	.	.	.	.	.	.	.	.
.	.	8e	al-	.	.	.	.	.	.	.	.
.	.	8e	-ways	.	.	.	.	.	.	.	.
.	.	4f#	feel	.	.	.	.	.	.	.	.
.	.	4c#	like	.	.	.	.	.	.	.	.
=28	=28	=28	=28	=28	=28	=28	=28	=28	=28	=28	=28
2-VI	A:maj	8r	.	1r	.	1r	.	.	51.724	.	voice
.	.	8c#	some-	.	.	.	.	.	.	.	.
.	.	8e	-bo-	.	.	.	.	.	.	.	.
.	.	8e	-dy's	.	.	.	.	.	.	.	.
2-VII	B:maj	4b	wa-	.	.	.	.	.	52.692	.	voice
.	.	8a	-tching	.	.	.	.	.	.	.	.
.	.	8a	me!	.	.	.	.	C	.	.	.
=29	=29	=29	=29	=29	=29	=29	=29	=29	=29	=29	=29
1i	C#:min	4.g#	_	1r	.	1r	.	.	53.66	.	voice
.	.	8r	.	.	.	.	.	.	.	.	.
.	.	8r	.	.	.	.	.	.	.	.	.
.	.	16g	And	.	.	.	.	.	.	.	.
.	.	16f#	I	.	.	.	.	.	.	.	.
.	.	8f#	have	.	.	.	.	.	.	.	.
.	.	8f#	no	.	.	.	.	.	.	.	.
=30	=30	=30	=30	=30	=30	=30	=30	=30	=30	=30	=30
2-VI	A:maj	8f#	pri-	1r	.	1r	.	.	55.595	.	voice
.	.	8c#	-va-	.	.	.	.	.	.	.	.
.	.	4c#	-cy.	.	.	.	.	C	.	.	.
2-VII	B:maj	8r	.	.	.	.	.	.	56.563	.	voice
.	.	8c#	Oh!	.	.	.	.	.	.	.	.
.	.	8e	_	.	.	.	.	.	.	.	.
.	.	8c#	_	.	.	.	.	.	.	.	.
=31	=31	=31	=31	=31	=31	=31	=31	=31	=31	=31	=31
1i	C#:min	8r	.	1r	.	1r	.	.	57.531	newline	voice
.	.	8c#	I	.	.	.	.	.	.	.	.
.	.	8e	al-	.	.	.	.	.	.	.	.
.	.	8e	-ways	.	.	.	.	.	.	.	.
.	.	4f#	feel	.	.	.	.	.	.	.	.
.	.	4c#	like,	.	.	.	.	.	.	.	.
=32	=32	=32	=32	=32	=32	=32	=32	=32	=32	=32	=32
2-VI	A:maj	8r	.	1r	.	1r	.	.	59.452	.	voice
.	.	8c#	some-	.	.	.	.	.	.	.	.
.	.	8e	-bo-	.	.	.	.	.	.	.	.
.	.	8e	-dy's	.	.	.	.	.	.	.	.
2-VII	B:maj	4b	wa-	.	.	.	.	.	60.412	.	voice
.	.	8a	-tching	.	.	.	.	.	.	.	.
.	.	8a	me!	.	.	.	.	C	.	.	.
=33	=33	=33	=33	=33	=33	=33	=33	=33	=33	=33	=33
1i	C#:min	4.g#	_	1r	.	1r	.	.	61.373	.	voice
.	.	8r	.	.	.	.	.	.	.	.	.
.	.	8r	.	.	.	.	.	.	.	.	.
.	.	16g	Tell	.	.	.	.	.	.	.	.
.	.	16f#	me,	.	.	.	.	.	.	.	.
.	.	8f#	is	.	.	.	.	.	.	.	.
.	.	8f#	it	.	.	.	.	.	.	.	.
=34	=34	=34	=34	=34	=34	=34	=34	=34	=34	=34	=34
2-VI	A:maj	8f#	just	1r	.	1r	.	.	63.294	.	voice
.	.	8c#	a	.	.	.	.	.	.	.	.
.	.	4c#	dream?	.	.	.	.	C	.	.	.
2-VII	B:maj	2r	.	.	.	.	.	.	64.254	.	voice
=35	=35	=35	=35	=35	=35	=35	=35	=35	=35	=35	=35
*>Letter>A	*>Letter>A	*>Letter>A	*>Letter>A	*>Letter>A	*>Letter>A	*>Letter>A	*>Letter>A	*>Letter>A	*>Letter>A	*>Letter>A	*>Letter>A
*>Label>Verse	*>Label>Verse	*>Label>Verse	*>Label>Verse	*>Label>Verse	*>Label>Verse	*>Label>Verse	*>Label>Verse	*>Label>Verse	*>Label>Verse	*>Label>Verse	*>Label>Verse
1i	C#:min	8r	.	1r	.	1r	.	.	65.215	newline	voice
.	.	16e	When	.	.	.	.	.	.	.	.
.	.	[16a	I	.	.	.	.	.	.	.	.
.	.	8a]	_	.	.	.	.	.	.	.	.
.	.	8d#	come	.	.	.	.	.	.	.	.
.	.	8c#	home	.	.	.	.	.	.	.	.
.	.	8B	at	.	.	.	.	.	.	.	.
.	.	[4B	night	.	.	.	.	A	.	.	.
=36	=36	=36	=36	=36	=36	=36	=36	=36	=36	=36	=36
1-VI	A:maj	4B]	.	1r	.	1r	.	.	67.152	.	voice
.	.	4r	.	.	.	.	.	.	.	.	.
.	.	2r	.	.	.	.	.	.	.	.	.
=37	=37	=37	=37	=37	=37	=37	=37	=37	=37	=37	=37
1i	C#:min	8r	.	1r	.	1r	.	.	69.089	.	voice
.	.	8B	I'd	.	.	.	.	.	.	.	.
.	.	8B	locked	.	.	.	.	.	.	.	.
.	.	16B	the	.	.	.	.	.	.	.	.
.	.	[16B	door	.	.	.	.	.	.	.	.
.	.	8B]	_	.	.	.	.	.	.	.	.
.	.	[8A	real	.	.	.	.	.	.	.	.
.	.	8A]	_	.	.	.	.	.	.	.	.
.	.	[8E	tight	.	.	.	.	A	.	.	.
=38	=38	=38	=38	=38	=38	=38	=38	=38	=38	=38	=38
2-VI	A:maj	4E]	.	1r	.	1r	.	.	71.027	.	voice
.	.	4r	.	.	.	.	.	.	.	.	.
2-VII	B:maj	2r	.	.	.	.	.	.	71.995	.	voice
=39	=39	=39	=39	=39	=39	=39	=39	=39	=39	=39	=39
1i	C#:min	8g#	Peo-	1r	.	1r	.	.	72.964	newline	voice
.	.	8g#	-ple	.	.	.	.	.	.	.	.
.	.	8B	call	.	.	.	.	.	.	.	.
.	.	8B	me	.	.	.	.	.	.	.	.
.	.	8f#	on	.	.	.	.	.	.	.	.
.	.	8f#	my	.	.	.	.	.	.	.	.
.	.	8B	phone,	.	.	.	.	.	.	.	.
.	.	8B	I'm	.	.	.	.	.	.	.	.
=40	=40	=40	=40	=40	=40	=40	=40	=40	=40	=40	=40
2-VI	A:maj	8e	trying	1r	.	1r	.	.	74.898	.	voice
.	.	8e	to	.	.	.	.	.	.	.	.
.	.	8F#	a-	.	.	.	.	.	.	.	.
.	.	[8B	-void	.	.	.	.	D	.	.	.
2-VII	B:maj	4B]	.	.	.	.	.	.	75.866	.	voice
.	.	16r	.	.	.	.	.	.	.	.	.
.	.	16f#	Well,	.	.	.	.	.	.	.	.
.	.	16f#	can	.	.	.	.	.	.	.	.
.	.	16f#	the	.	.	.	.	.	.	.	.
=41	=41	=41	=41	=41	=41	=41	=41	=41	=41	=41	=41
1i	C#:min	16a	peo-	1r	.	1r	.	.	76.833	.	voice
.	.	16a	-ple	.	.	.	.	.	.	.	.
.	.	8a	on	.	.	.	.	.	.	.	.
.	.	8f#	T-	.	.	.	.	.	.	.	.
.	.	8f#	-V	.	.	.	.	.	.	.	.
.	.	8B	see	.	.	.	.	.	.	.	.
.	.	8B	me	.	.	.	.	.	.	.	.
.	.	16A	or	.	.	.	.	.	.	.	.
.	.	16A	am	.	.	.	.	.	.	.	.
.	.	[8c#	I	.	.	.	.	.	.	.	.
=42	=42	=42	=42	=42	=42	=42	=42	=42	=42	=42	=42
2-VI	A:maj	8c#]	_	1r	.	1r	.	.	78.767	.	voice
.	.	8c#	just	.	.	.	.	.	.	.	.
.	.	16e	pa-	.	.	.	.	.	.	.	.
.	.	16B	-ra-	.	.	.	.	.	.	.	.
.	.	[8A	-noid?	.	.	.	.	D	.	.	.
2-VII	B:maj	4A]	_	.	.	.	.	.	79.734	.	voice
.	.	4r	.	.	.	.	.	.	.	.	.
=43	=43	=43	=43	=43	=43	=43	=43	=43	=43	=43	=43
*>Letter>A	*>Letter>A	*>Letter>A	*>Letter>A	*>Letter>A	*>Letter>A	*>Letter>A	*>Letter>A	*>Letter>A	*>Letter>A	*>Letter>A	*>Letter>A
*>Label>Verse	*>Label>Verse	*>Label>Verse	*>Label>Verse	*>Label>Verse	*>Label>Verse	*>Label>Verse	*>Label>Verse	*>Label>Verse	*>Label>Verse	*>Label>Verse	*>Label>Verse
1i	C#:min	8r	.	1r	.	1r	.	.	80.702	newline	voice
.	.	16g#	When	.	.	.	.	.	.	.	.
.	.	16g#	I'm	.	.	.	.	.	.	.	.
.	.	16g#	in	.	.	.	.	.	.	.	.
.	.	8g#	the	.	.	.	.	.	.	.	.
.	.	[16g#	sho	.	.	.	.	.	.	.	.
.	.	16g#]	_	.	.	.	.	.	.	.	.
.	.	8.c#	wer,	.	.	.	.	.	.	.	.
.	.	8r	.	.	.	.	.	.	.	.	.
.	.	16g#	I'm	.	.	.	.	.	.	.	.
.	.	16g#	a-	.	.	.	.	.	.	.	.
=44	=44	=44	=44	=44	=44	=44	=44	=44	=44	=44	=44
2-VI	A:maj	8.g#	-fraid	1r	.	1r	.	.	82.632	.	voice
.	.	16e	to	.	.	.	.	.	.	.	.
.	.	8d#	wash	.	.	.	.	.	.	.	.
.	.	8c#	my	.	.	.	.	.	.	.	.
2-VII	B:maj	4c#	hair,	.	.	.	.	E	83.597	.	voice
.	.	4r	.	.	.	.	.	.	.	.	.
=45	=45	=45	=45	=45	=45	=45	=45	=45	=45	=45	=45
1i	C#:min	16r	.	1r	.	1r	.	.	84.562	.	voice
.	.	16e	'cause	.	.	.	.	.	.	.	.
.	.	16e	I	.	.	.	.	.	.	.	.
.	.	16e	might	.	.	.	.	.	.	.	.
.	.	16e	o-	.	.	.	.	.	.	.	.
.	.	16e	-pen	.	.	.	.	.	.	.	.
.	.	16e	my	.	.	.	.	.	.	.	.
.	.	[16f#	eyes,	.	.	.	.	.	.	.	.
.	.	8f#]	_	.	.	.	.	.	.	.	.
.	.	8e	and	.	.	.	.	.	.	.	.
.	.	8f#	find	.	.	.	.	.	.	.	.
.	.	8g#	some	.	.	.	.	.	.	.	.
=46	=46	=46	=46	=46	=46	=46	=46	=46	=46	=46	=46
2-VI	A:maj	4g#	one	1r	.	1r	.	.	86.493	.	voice
.	.	8a	stan-	.	.	.	.	.	.	.	.
.	.	8e	-ding	.	.	.	.	.	.	.	.
2-VII	B:maj	4c#	there!	.	.	.	.	E	87.458	.	voice
.	.	4r	.	.	.	.	.	.	.	.	.
=47	=47	=47	=47	=47	=47	=47	=47	=47	=47	=47	=47
1i	C#:min	8r	.	1r	.	1r	.	.	88.423	newline	voice
.	.	16g#	Peo-	.	.	.	.	.	.	.	.
.	.	16g#	-ple	.	.	.	.	.	.	.	.
.	.	16g#	say	.	.	.	.	.	.	.	.
.	.	8g#	I'm	.	.	.	.	.	.	.	.
.	.	[16g#	cra	.	.	.	.	.	.	.	.
.	.	16g#]	_	.	.	.	.	.	.	.	.
.	.	8.e	zy,	.	.	.	.	.	.	.	.
.	.	4r	.	.	.	.	.	.	.	.	.
=48	=48	=48	=48	=48	=48	=48	=48	=48	=48	=48	=48
2-VI	A:maj	8r	.	1r	.	1r	.	.	90.366	.	voice
.	.	16g#	just	.	.	.	.	.	.	.	.
.	.	16g#	a	.	.	.	.	.	.	.	.
.	.	16g#	lit-	.	.	.	.	.	.	.	.
.	.	8e	-tle	.	.	.	.	.	.	.	.
.	.	[16e	touched	.	.	.	.	F	.	.	.
2-VII	B:maj	8e]	_	.	.	.	.	.	91.338	.	voice
.	.	8r	.	.	.	.	.	.	.	.	.
.	.	8r	.	.	.	.	.	.	.	.	.
.	.	8f#	but	.	.	.	.	.	.	.	.
=49	=49	=49	=49	=49	=49	=49	=49	=49	=49	=49	=49
1i	C#:min	8g#	may-	1r	.	1r	.	.	92.309	.	voice
.	.	8ff#	-be	.	.	.	.	.	.	.	.
.	.	8f#	sho-	.	.	.	.	.	.	.	.
.	.	16f#	-wers	.	.	.	.	.	.	.	.
.	.	16e	re-	.	.	.	.	.	.	.	.
.	.	8c#	-mind	.	.	.	.	.	.	.	.
.	.	8B	me	.	.	.	.	.	.	.	.
.	.	8r	.	.	.	.	.	.	.	.	.
.	.	8e	of	.	.	.	.	.	.	.	.
=50	=50	=50	=50	=50	=50	=50	=50	=50	=50	=50	=50
2-VI	A:maj	8d#	Psy-	1r	.	1r	.	.	94.252	.	voice
.	.	8B	-cho	.	.	.	.	.	.	.	.
.	.	8G#	too	.	.	.	.	.	.	.	.
.	.	8F#	much,	.	.	.	.	F	.	.	.
2-VII	B:maj	8r	.	.	.	.	.	.	95.223	.	voice
.	.	8gg#	that's	.	.	.	.	.	.	.	.
.	.	4B	why...	.	.	.	.	.	.	.	.
=51	=51	=51	=51	=51	=51	=51	=51	=51	=51	=51	=51
*>Letter>B	*>Letter>B	*>Letter>B	*>Letter>B	*>Letter>B	*>Letter>B	*>Letter>B	*>Letter>B	*>Letter>B	*>Letter>B	*>Letter>B	*>Letter>B
*>Label>Chorus	*>Label>Chorus	*>Label>Chorus	*>Label>Chorus	*>Label>Chorus	*>Label>Chorus	*>Label>Chorus	*>Label>Chorus	*>Label>Chorus	*>Label>Chorus	*>Label>Chorus	*>Label>Chorus
1i	C#:min	8r	.	1r	.	1r	.	.	96.195	newline	voice
.	.	8c#	I	.	.	.	.	.	.	.	.
.	.	8e	al-	.	.	.	.	.	.	.	.
.	.	8e	-ways	.	.	.	.	.	.	.	.
.	.	4f#	feel	.	.	.	.	.	.	.	.
.	.	4c#	like	.	.	.	.	.	.	.	.
=52	=52	=52	=52	=52	=52	=52	=52	=52	=52	=52	=52
2-VI	A:maj	8r	.	1r	.	1r	.	.	98.122	.	voice
.	.	8c#	some-	.	.	.	.	.	.	.	.
.	.	8e	-bo-	.	.	.	.	.	.	.	.
.	.	8e	-dy's	.	.	.	.	.	.	.	.
2-VII	B:maj	4b	wa-	.	.	.	.	.	99.085	.	voice
.	.	8a	-tching	.	.	.	.	.	.	.	.
.	.	8a	me!	.	.	.	.	C	.	.	.
=53	=53	=53	=53	=53	=53	=53	=53	=53	=53	=53	=53
1i	C#:min	4.g#	_	1r	.	1r	.	.	100.049	.	voice
.	.	8r	.	.	.	.	.	.	.	.	.
.	.	8r	.	.	.	.	.	.	.	.	.
.	.	16g	And	.	.	.	.	.	.	.	.
.	.	16f#	I	.	.	.	.	.	.	.	.
.	.	8f#	have	.	.	.	.	.	.	.	.
.	.	8f#	no	.	.	.	.	.	.	.	.
=54	=54	=54	=54	=54	=54	=54	=54	=54	=54	=54	=54
2-VI	A:maj	8f#	pri-	1r	.	1r	.	.	101.976	.	voice
.	.	8c#	-va-	.	.	.	.	.	.	.	.
.	.	4c#	-cy,	.	.	.	.	c	.	.	.
2-VII	B:maj	8r	.	.	.	.	.	.	102.94	.	voice
.	.	8c#	whoa-	.	.	.	.	.	.	.	.
.	.	8e	-oh-	.	.	.	.	.	.	.	.
.	.	8c#	-oh!	.	.	.	.	.	.	.	.
=55	=55	=55	=55	=55	=55	=55	=55	=55	=55	=55	=55
1i	C#:min	8r	.	1r	.	1r	.	.	103.904	newline	voice
.	.	8c#	I	.	.	.	.	.	.	.	.
.	.	8e	al-	.	.	.	.	.	.	.	.
.	.	8e	-ways	.	.	.	.	.	.	.	.
.	.	4f#	feel	.	.	.	.	.	.	.	.
.	.	4c#	like,	.	.	.	.	.	.	.	.
=56	=56	=56	=56	=56	=56	=56	=56	=56	=56	=56	=56
2-VI	A:maj	8r	.	1r	.	1r	.	.	105.843	.	voice
.	.	8c#	some-	.	.	.	.	.	.	.	.
.	.	8e	-bo-	.	.	.	.	.	.	.	.
.	.	8e	-dy's	.	.	.	.	.	.	.	.
2-VII	B:maj	4b	wa-	.	.	.	.	.	106.813	.	voice
.	.	8a	-tching	.	.	.	.	.	.	.	.
.	.	8a	me!	.	.	.	.	C	.	.	.
=57	=57	=57	=57	=57	=57	=57	=57	=57	=57	=57	=57
1i	C#:min	4.g#	_	1r	.	1r	.	.	107.783	.	voice
.	.	8r	.	.	.	.	.	.	.	.	.
.	.	8r	.	.	.	.	.	.	.	.	.
.	.	8g	Who's	.	.	.	.	.	.	.	.
.	.	8f#	pla-	.	.	.	.	.	.	.	.
.	.	8f#	-ying	.	.	.	.	.	.	.	.
=58	=58	=58	=58	=58	=58	=58	=58	=58	=58	=58	=58
2-VI	A:maj	8f#	tricks	1r	.	1r	.	.	109.722	.	voice
.	.	8c#	on	.	.	.	.	.	.	.	.
.	.	4c#	me?	.	.	.	.	C	.	.	.
2-VII	B:maj	2r	.	.	.	.	.	.	110.692	.	voice
=59	=59	=59	=59	=59	=59	=59	=59	=59	=59	=59	=59
*>Letter>D	*>Letter>D	*>Letter>D	*>Letter>D	*>Letter>D	*>Letter>D	*>Letter>D	*>Letter>D	*>Letter>D	*>Letter>D	*>Letter>D	*>Letter>D
*>Label>Solo	*>Label>Solo	*>Label>Solo	*>Label>Solo	*>Label>Solo	*>Label>Solo	*>Label>Solo	*>Label>Solo	*>Label>Solo	*>Label>Solo	*>Label>Solo	*>Label>Solo
1i	C#:min	1r	.	1r	.	1r	.	.	111.662	newline	synthesizer
=60	=60	=60	=60	=60	=60	=60	=60	=60	=60	=60	=60
2-VI	A:maj	1r	.	1r	.	1r	.	.	113.587	.	synthesizer
2-VII	B:maj	.	.	.	.	.	.	.	114.55	.	synthesizer
=61	=61	=61	=61	=61	=61	=61	=61	=61	=61	=61	=61
1i	C#:min	1r	.	1r	.	1r	.	.	115.513	.	synthesizer
=62	=62	=62	=62	=62	=62	=62	=62	=62	=62	=62	=62
2-VI	A:maj	1r	.	1r	.	1r	.	.	117.438	.	synthesizer
2-VII	B:maj	.	.	.	.	.	.	.	118.401	.	synthesizer
=63	=63	=63	=63	=63	=63	=63	=63	=63	=63	=63	=63
1i	C#:min	1r	.	1r	.	1r	.	.	119.364	newline	synthesizer
=64	=64	=64	=64	=64	=64	=64	=64	=64	=64	=64	=64
2-VI	A:maj	1r	.	1r	.	1r	.	.	121.301	.	synthesizer
2-VII	B:maj	.	.	.	.	.	.	.	122.269	.	synthesizer
=65	=65	=65	=65	=65	=65	=65	=65	=65	=65	=65	=65
1i	C#:min	1r	.	1r	.	1r	.	.	123.237	.	synthesizer
=66	=66	=66	=66	=66	=66	=66	=66	=66	=66	=66	=66
2-VI	A:maj	1r	.	1r	.	1r	.	.	125.174	.	synthesizer
2-VII	B:maj	.	.	.	.	.	.	.	126.142	.	synthesizer
=67	=67	=67	=67	=67	=67	=67	=67	=67	=67	=67	=67
1i	C#:min(b13)	1r	.	1r	.	1r	.	.	127.111	newline	synthesizer
=68	=68	=68	=68	=68	=68	=68	=68	=68	=68	=68	=68
1i	C#:min(b13)	1r	.	1r	.	1r	.	.	129.043	.	synthesizer
=69	=69	=69	=69	=69	=69	=69	=69	=69	=69	=69	=69
1i	C#:min(b13)	1r	.	1r	.	1r	.	.	130.975	.	synthesizer
=70	=70	=70	=70	=70	=70	=70	=70	=70	=70	=70	=70
1i	C#:min(b13)	1r	.	1r	.	1r	.	.	132.906	.	synthesizer
=71	=71	=71	=71	=71	=71	=71	=71	=71	=71	=71	=71
1i	C#:min(b13)	1r	.	1r	.	1r	.	.	134.838	newline	synthesizer
=72	=72	=72	=72	=72	=72	=72	=72	=72	=72	=72	=72
1i	C#:min(b13)	1r	.	1r	.	1r	.	.	136.786	.	synthesizer
=73	=73	=73	=73	=73	=73	=73	=73	=73	=73	=73	=73
1i	C#:min(b13)	1r	.	1r	.	1r	.	.	138.735	.	synthesizer
=74	=74	=74	=74	=74	=74	=74	=74	=74	=74	=74	=74
2-VI	A:maj	2r	.	1r	.	1r	.	.	140.683	.	synthesizer
2-VII	B:maj	8r	.	.	.	.	.	.	141.657	.	synthesizer
.	.	8g#	Who's	.	.	.	.	.	.	.	.
.	.	8f#	wa-	.	.	.	.	.	.	.	.
.	.	8e	-tching	.	.	.	.	.	.	.	.
=75	=75	=75	=75	=75	=75	=75	=75	=75	=75	=75	=75
*>Letter>E	*>Letter>E	*>Letter>E	*>Letter>E	*>Letter>E	*>Letter>E	*>Letter>E	*>Letter>E	*>Letter>E	*>Letter>E	*>Letter>E	*>Letter>E
*>Label>Bridge	*>Label>Bridge	*>Label>Bridge	*>Label>Bridge	*>Label>Bridge	*>Label>Bridge	*>Label>Bridge	*>Label>Bridge	*>Label>Bridge	*>Label>Bridge	*>Label>Bridge	*>Label>Bridge
1i	C#:min	8e	me?	1r	.	1r	.	C	142.631	newline	voice
.	.	8r	.	.	.	.	.	.	.	.	.
.	.	16r	.	.	.	.	.	.	.	.	.
.	.	16B	I	.	.	.	.	.	.	.	.
.	.	8a	don't	.	.	.	.	.	.	.	.
.	.	16a	know	.	.	.	.	.	.	.	.
.	.	16e	a-	.	.	.	.	.	.	.	.
.	.	[8B	-ny-	.	.	.	.	.	.	.	.
.	.	8.B]	-more!	.	.	.	.	.	.	.	.
.	.	16r	.	.	.	.	.	.	.	.	.
=76	=76	=76	=76	=76	=76	=76	=76	=76	=76	=76	=76
1i	C#:min(11)	12r	.	2r	.	2r	.	.	144.556	.	voice
.	.	12e	Are	.	.	.	.	.	.	.	.
.	.	12f#	the	.	.	.	.	.	.	.	.
.	.	4g#	neigh-	.	.	.	.	.	.	.	.
.	.	12f#	-bors	4B 4b	Who's	4BBB 4BB	Who's	.	.	.	.
.	.	12e	wa-	.	.	.	.	.	.	.	.
.	.	12B	-tching	.	.	.	.	.	.	.	.
.	.	8B	me?	8A 8a	wa-	8AAA 8AA	wa-	.	.	.	.
.	.	8r	.	8G# 8g#	-tching?	8GGG# 8GG#	-tching?	.	.	.	.
=77	=77	=77	=77	=77	=77	=77	=77	=77	=77	=77	=77
1i	C#:min	2r	.	1r	.	1r	.	.	146.481	.	voice
.	.	12r	.	.	.	.	.	.	.	.	.
.	.	12f#	Well,	.	.	.	.	.	.	.	.
.	.	12g#	is	.	.	.	.	.	.	.	.
.	.	12a	the	.	.	.	.	.	.	.	.
.	.	6b	mail-	.	.	.	.	.	.	.	.
=78	=78	=78	=78	=78	=78	=78	=78	=78	=78	=78	=78
1-VI	A:maj	4f#	-man	4r	.	4r	.	.	148.407	.	voice
.	.	12c#	wa-	8G# 8g#	Tell	8GGG# 8GG#	Tell	.	.	.	.
.	.	12B	-tching	.	.	.	.	.	.	.	.
.	.	.	.	8A 8a	me,	8AAA 8AA	me,	.	.	.	.
.	.	12G#	me?	.	.	.	.	.	.	.	.
.	.	2r	.	4B 4b	who's	4BBB 4BB	who's	.	.	.	.
.	.	.	.	8A 8a	wa-	8AAA 8AA	wa-	.	.	.	.
.	.	.	.	8G# 8g#	-tching?	8GGG# 8GG#	-tching?	.	.	.	.
=79	=79	=79	=79	=79	=79	=79	=79	=79	=79	=79	=79
1i	C#:min	16r	.	1r	.	1r	.	.	150.332	newline	voice
.	.	16g#	And	.	.	.	.	.	.	.	.
.	.	16g#	I	.	.	.	.	.	.	.	.
.	.	[16g#	don't	.	.	.	.	.	.	.	.
.	.	8g#]	_	.	.	.	.	.	.	.	.
.	.	8g#	feel	.	.	.	.	.	.	.	.
.	.	8g#	safe	.	.	.	.	.	.	.	.
.	.	16e	a-	.	.	.	.	.	.	.	.
.	.	16e	-ny-	.	.	.	.	.	.	.	.
.	.	4B	-more!	.	.	.	.	.	.	.	.
=80	=80	=80	=80	=80	=80	=80	=80	=80	=80	=80	=80
1-VI7	A:maj7	8r	.	1r	.	1r	.	.	152.268	.	voice
.	.	8g	Oh,	.	.	.	.	.	.	.	.
.	.	16f#	what	.	.	.	.	.	.	.	.
.	.	8f#	a	.	.	.	.	.	.	.	.
.	.	[16f#	mess!	.	.	.	.	.	.	.	.
.	.	4f#]	_	.	.	.	.	.	.	.	.
.	.	8r	.	.	.	.	.	.	.	.	.
.	.	8g#	I	.	.	.	.	.	.	.	.
=81	=81	=81	=81	=81	=81	=81	=81	=81	=81	=81	=81
1i	C#:min	16a	won-	1r	.	1r	.	.	154.204	.	voice
.	.	16a	-der	.	.	.	.	.	.	.	.
.	.	8e	who's	.	.	.	.	.	.	.	.
.	.	12f#	wa-	.	.	.	.	.	.	.	.
.	.	12f#	-tching	.	.	.	.	.	.	.	.
.	.	12g	me	.	.	.	.	.	.	.	.
.	.	4g	now?	.	.	.	.	.	.	.	.
.	.	4a	WHO!	.	.	.	.	.	.	.	.
=82	=82	=82	=82	=82	=82	=82	=82	=82	=82	=82	=82
2-VI	A:maj	8r	.	1r	.	1r	.	.	156.14	.	voice
.	.	8f#	The	.	.	.	.	.	.	.	.
.	.	16f#	I-	.	.	.	.	.	.	.	.
.	.	8f#	-R-	.	.	.	.	.	.	.	.
.	.	16ee	-S	.	.	.	.	.	.	.	.
2-VII	B:maj	8ff#	??	.	.	.	.	.	157.108	.	voice
.	.	8r	.	.	.	.	.	.	.	.	.
.	.	4r	.	.	.	.	.	.	.	.	.
=83	=83	=83	=83	=83	=83	=83	=83	=83	=83	=83	=83
*>Letter>B	*>Letter>B	*>Letter>B	*>Letter>B	*>Letter>B	*>Letter>B	*>Letter>B	*>Letter>B	*>Letter>B	*>Letter>B	*>Letter>B	*>Letter>B
*>Label>Chorus	*>Label>Chorus	*>Label>Chorus	*>Label>Chorus	*>Label>Chorus	*>Label>Chorus	*>Label>Chorus	*>Label>Chorus	*>Label>Chorus	*>Label>Chorus	*>Label>Chorus	*>Label>Chorus
1i	C#:min	8r	.	1r	.	1r	.	.	158.076	newline	voice
.	.	8c#	I	.	.	.	.	.	.	.	.
.	.	8e	al-	.	.	.	.	.	.	.	.
.	.	8e	-ways	.	.	.	.	.	.	.	.
.	.	4f#	feel	.	.	.	.	.	.	.	.
.	.	4c#	like	.	.	.	.	.	.	.	.
=84	=84	=84	=84	=84	=84	=84	=84	=84	=84	=84	=84
2-VI	A:maj	8r	.	1r	.	1r	.	.	160.012	.	voice
.	.	8c#	some-	.	.	.	.	.	.	.	.
.	.	8e	-bo-	.	.	.	.	.	.	.	.
.	.	8e	-dy's	.	.	.	.	.	.	.	.
2-VII	B:maj	4b	wa-	.	.	.	.	.	160.981	.	voice
.	.	8a	-tching	.	.	.	.	.	.	.	.
.	.	8a	me!	.	.	.	.	C	.	.	.
=85	=85	=85	=85	=85	=85	=85	=85	=85	=85	=85	=85
1i	C#:min	4.g#	_	1r	.	1r	.	.	161.949	.	voice
.	.	8r	.	.	.	.	.	.	.	.	.
.	.	8r	.	.	.	.	.	.	.	.	.
.	.	16g	And	.	.	.	.	.	.	.	.
.	.	16f#	I	.	.	.	.	.	.	.	.
.	.	8f#	have	.	.	.	.	.	.	.	.
.	.	8f#	no	.	.	.	.	.	.	.	.
=86	=86	=86	=86	=86	=86	=86	=86	=86	=86	=86	=86
2-VI	A:maj	8f#	pri-	1r	.	1r	.	.	163.885	.	voice
.	.	8c#	-va-	.	.	.	.	.	.	.	.
.	.	4c#	-cy,	.	.	.	.	C	.	.	.
2-VII	B:maj	8r	.	.	.	.	.	.	164.854	.	voice
.	.	8c#	whoa-	.	.	.	.	.	.	.	.
.	.	8e	-oh-	.	.	.	.	.	.	.	.
.	.	8c#	-oh!	.	.	.	.	.	.	.	.
=87	=87	=87	=87	=87	=87	=87	=87	=87	=87	=87	=87
1i	C#:min	8r	.	1r	.	1r	.	.	165.822	newline	voice
.	.	8c#	I	.	.	.	.	.	.	.	.
.	.	8e	al-	.	.	.	.	.	.	.	.
.	.	8e	-ways	.	.	.	.	.	.	.	.
.	.	4f#	feel	.	.	.	.	.	.	.	.
.	.	4c#	like	.	.	.	.	.	.	.	.
=88	=88	=88	=88	=88	=88	=88	=88	=88	=88	=88	=88
2-VI	A:maj	8r	.	1r	.	1r	.	.	167.744	.	voice
.	.	8c#	some-	.	.	.	.	.	.	.	.
.	.	8e	-bo-	.	.	.	.	.	.	.	.
.	.	8e	-dy's	.	.	.	.	.	.	.	.
2-VII	B:maj	4b	wa-	.	.	.	.	.	168.706	.	voice
.	.	8a	-tching	.	.	.	.	.	.	.	.
.	.	8a	me!	.	.	.	.	C	.	.	.
=89	=89	=89	=89	=89	=89	=89	=89	=89	=89	=89	=89
1i	C#:min	4.g#	_	1r	.	1r	.	.	169.667	.	voice
.	.	8r	.	.	.	.	.	.	.	.	.
.	.	8r	.	.	.	.	.	.	.	.	.
.	.	16g	Tell	.	.	.	.	.	.	.	.
.	.	16g	me,	.	.	.	.	.	.	.	.
.	.	8f#	is	.	.	.	.	.	.	.	.
.	.	8f#	it	.	.	.	.	.	.	.	.
=90	=90	=90	=90	=90	=90	=90	=90	=90	=90	=90	=90
2-VI	A:maj	8f#	just	1r	.	1r	.	.	171.59	.	voice
.	.	8c#	a	.	.	.	.	.	.	.	.
.	.	4c#	dream?	.	.	.	.	C	.	.	.
2-VII	B:maj	2r	.	.	.	.	.	.	172.551	.	voice
=91	=91	=91	=91	=91	=91	=91	=91	=91	=91	=91	=91
1i	C#:min	8r	.	1r	.	1r	.	.	173.513	newline	voice
.	.	8c#	I	.	.	.	.	.	.	.	.
.	.	8e	al-	.	.	.	.	.	.	.	.
.	.	8e	-ways	.	.	.	.	.	.	.	.
.	.	4f#	feel	.	.	.	.	.	.	.	.
.	.	4c#	like	.	.	.	.	.	.	.	.
=92	=92	=92	=92	=92	=92	=92	=92	=92	=92	=92	=92
2-VI	A:maj	8r	.	1r	.	1r	.	.	175.45	.	voice
.	.	8c#	some-	.	.	.	.	.	.	.	.
.	.	8e	-bo-	.	.	.	.	.	.	.	.
.	.	8e	-dy's	.	.	.	.	.	.	.	.
2-VII	B:maj	4b	wa-	.	.	.	.	.	176.418	.	voice
.	.	8a	-tching	.	.	.	.	.	.	.	.
.	.	8a	me!	.	.	.	.	C	.	.	.
=93	=93	=93	=93	=93	=93	=93	=93	=93	=93	=93	=93
1i	C#:min	4.g#	_	2r	.	1r	.	.	177.387	.	voice
.	.	8r	.	.	.	.	.	.	.	.	.
.	.	8r	.	6r	.	.	.	.	.	.	.
.	.	16g	And	.	.	.	.	.	.	.	.
.	.	.	.	6ff#	_	.	.	.	.	.	.
.	.	16f#	I	.	.	.	.	.	.	.	.
.	.	8f#	have	.	.	.	.	.	.	.	.
.	.	.	.	6ee	_	.	.	.	.	.	.
.	.	8f#	no	.	.	.	.	.	.	.	.
=94	=94	=94	=94	=94	=94	=94	=94	=94	=94	=94	=94
2-VI	A:maj	8f#	pri-	4cc#	_	1r	.	.	179.324	.	voice
.	.	8c#	-va-	.	.	.	.	.	.	.	.
.	.	4c#	-cy,	4r	.	.	.	c	.	.	.
2-VII	B:maj	8B	whoa-	2r	.	.	.	.	180.292	.	voice
.	.	8c#	-oh-	.	.	.	.	.	.	.	.
.	.	8e	-oh-	.	.	.	.	.	.	.	.
.	.	8c#	-oh!	.	.	.	.	.	.	.	.
=95	=95	=95	=95	=95	=95	=95	=95	=95	=95	=95	=95
1i	C#:min	8r	.	1r	.	1r	.	.	181.261	newline	voice
.	.	8c#	I	.	.	.	.	.	.	.	.
.	.	8e	al-	.	.	.	.	.	.	.	.
.	.	8e	-ways	.	.	.	.	.	.	.	.
.	.	4f#	feel	.	.	.	.	.	.	.	.
.	.	4c#	like	.	.	.	.	.	.	.	.
=96	=96	=96	=96	=96	=96	=96	=96	=96	=96	=96	=96
2-VI	A:maj	8r	.	1r	.	1r	.	.	183.19	.	voice
.	.	8c#	some-	.	.	.	.	.	.	.	.
.	.	8e	-bo-	.	.	.	.	.	.	.	.
.	.	8e	-dy's	.	.	.	.	.	.	.	.
2-VII	B:maj	4b	wa-	.	.	.	.	.	184.154	.	voice
.	.	8a	-tching	.	.	.	.	.	.	.	.
.	.	8a	me!	.	.	.	.	C	.	.	.
=97	=97	=97	=97	=97	=97	=97	=97	=97	=97	=97	=97
1i	C#:min	4.g#	_	1r	.	1r	.	.	185.119	.	voice
.	.	8r	.	.	.	.	.	.	.	.	.
.	.	8r	.	.	.	.	.	.	.	.	.
.	.	8g#	Who's	.	.	.	.	.	.	.	.
.	.	8g	pla-	.	.	.	.	.	.	.	.
.	.	8f#	-ying	.	.	.	.	.	.	.	.
=98	=98	=98	=98	=98	=98	=98	=98	=98	=98	=98	=98
2-VI	A:maj	8f#	tricks	2r	.	1r	.	.	187.048	.	voice
.	.	8f#	on	.	.	.	.	.	.	.	.
.	.	4g#	me?	.	.	.	.	C	.	.	.
2-VII	B:maj	2r	.	8r	.	.	.	.	188.013	.	voice
.	.	.	.	8e 8g#	Who's	.	.	.	.	.	.
.	.	.	.	8d# 8f#	wa-	.	.	.	.	.	.
.	.	.	.	8c# 8e	-tching	.	.	.	.	.	.
=99	=99	=99	=99	=99	=99	=99	=99	=99	=99	=99	=99
*>Letter>B	*>Letter>B	*>Letter>B	*>Letter>B	*>Letter>B	*>Letter>B	*>Letter>B	*>Letter>B	*>Letter>B	*>Letter>B	*>Letter>B	*>Letter>B
*>Label>Chorus	*>Label>Chorus	*>Label>Chorus	*>Label>Chorus	*>Label>Chorus	*>Label>Chorus	*>Label>Chorus	*>Label>Chorus	*>Label>Chorus	*>Label>Chorus	*>Label>Chorus	*>Label>Chorus
1i	C#:min	8r	.	8c# 8e	me?	1r	.	.	188.977	newline	voice
.	.	8c#	I	8r	.	.	.	.	.	.	.
.	.	8e	al-	2.r	.	.	.	.	.	.	.
.	.	8e	-ways	.	.	.	.	.	.	.	.
.	.	4f#	feel	.	.	.	.	.	.	.	.
.	.	4c#	like	.	.	.	.	.	.	.	.
=100	=100	=100	=100	=100	=100	=100	=100	=100	=100	=100	=100
2-VI	A:maj	8r	.	1r	.	1r	.	.	190.909	.	voice
.	.	8c#	some-	.	.	.	.	.	.	.	.
.	.	8e	-bo-	.	.	.	.	.	.	.	.
.	.	8e	-dy's	.	.	.	.	.	.	.	.
2-VII	B:maj	4b	wa-	.	.	.	.	.	191.875	.	voice
.	.	8a	-tching	.	.	.	.	.	.	.	.
.	.	8a	me!	.	.	.	.	C	.	.	.
=101	=101	=101	=101	=101	=101	=101	=101	=101	=101	=101	=101
1i	C#:min	4.g#	_	2r	.	1r	.	.	192.841	.	voice
.	.	8r	.	.	.	.	.	.	.	.	.
.	.	2r	.	4r	.	.	.	.	.	.	.
.	.	.	.	8r	.	.	.	.	.	.	.
.	.	.	.	[8cc#	Ooh	.	.	.	.	.	.
=102	=102	=102	=102	=102	=102	=102	=102	=102	=102	=102	=102
2-VI	A:maj	2r	.	16cc#]	_	1r	.	.	194.772	.	voice
.	.	.	.	16b	_	.	.	.	.	.	.
.	.	.	.	8g#	_	.	.	.	.	.	.
.	.	.	.	8f#	_	.	.	.	.	.	.
.	.	.	.	[8e	_	.	.	.	.	.	.
2-VII	B:maj	8r	.	4e]	.	.	.	.	195.738	.	voice
.	.	8c#	Whoa-	.	.	.	.	.	.	.	.
.	.	8e	-oh-	4r	.	.	.	.	.	.	.
.	.	8c#	-oh!	.	.	.	.	.	.	.	.
=103	=103	=103	=103	=103	=103	=103	=103	=103	=103	=103	=103
1i	C#:min	8r	.	1r	.	1r	.	.	196.704	newline	voice
.	.	8c#	I	.	.	.	.	.	.	.	.
.	.	8e	al-	.	.	.	.	.	.	.	.
.	.	8e	-ways	.	.	.	.	.	.	.	.
.	.	4f#	feel	.	.	.	.	.	.	.	.
.	.	4c#	like	.	.	.	.	.	.	.	.
=104	=104	=104	=104	=104	=104	=104	=104	=104	=104	=104	=104
2-VI	A:maj	8r	.	1r	.	1r	.	.	198.653	.	voice
.	.	8c#	some-	.	.	.	.	.	.	.	.
.	.	8e	-bo-	.	.	.	.	.	.	.	.
.	.	8e	-dy's	.	.	.	.	.	.	.	.
2-VII	B:maj	4b	wa-	.	.	.	.	.	199.628	.	voice
.	.	8a	-tching	.	.	.	.	.	.	.	.
.	.	8a	me!	.	.	.	.	C	.	.	.
=105	=105	=105	=105	=105	=105	=105	=105	=105	=105	=105	=105
1i	C#:min	4.g#	_	2r	.	1r	.	.	200.603	.	voice
.	.	8r	.	.	.	.	.	.	.	.	.
.	.	8r	.	6r	.	.	.	.	.	.	.
.	.	8g#	Tell	.	.	.	.	.	.	.	.
.	.	.	.	6ff#	_	.	.	.	.	.	.
.	.	8f#	me,	.	.	.	.	.	.	.	.
.	.	.	.	6ee	_	.	.	.	.	.	.
.	.	8e	who	.	.	.	.	.	.	.	.
=106	=106	=106	=106	=106	=106	=106	=106	=106	=106	=106	=106
2-VI	A:maj	8f#	can	4cc#	_	1r	.	.	202.552	.	voice
.	.	8c#	it	.	.	.	.	.	.	.	.
.	.	4c#	be!	4r	.	.	.	C	.	.	.
2-VII	B:maj	2r	.	8r	.	.	.	.	203.527	.	voice
.	.	.	.	8e 8g#	_	.	.	.	.	.	.
.	.	.	.	8d# 8f#	_	.	.	.	.	.	.
.	.	.	.	8c# 8e	_	.	.	.	.	.	.
=107	=107	=107	=107	=107	=107	=107	=107	=107	=107	=107	=107
1i	C#:min	8r	.	8c# 8e	_	1r	.	.	204.502	newline	voice
.	.	8c#	I	8r	.	.	.	.	.	.	.
.	.	8e	al-	2.r	.	.	.	.	.	.	.
.	.	8e	-ways	.	.	.	.	.	.	.	.
.	.	4f#	feel	.	.	.	.	.	.	.	.
.	.	4c#	like	.	.	.	.	.	.	.	.
=108	=108	=108	=108	=108	=108	=108	=108	=108	=108	=108	=108
2-VI	A:maj	8r	.	1r	.	1r	.	.	206.43	.	voice
.	.	8c#	some-	.	.	.	.	.	.	.	.
.	.	8e	-bo-	.	.	.	.	.	.	.	.
.	.	8e	-dy's	.	.	.	.	.	.	.	.
2-VII	B:maj	4b	wa-	.	.	.	.	.	207.394	.	voice
.	.	8a	-tching	.	.	.	.	.	.	.	.
.	.	8a	me!	.	.	.	.	C	.	.	.
=109	=109	=109	=109	=109	=109	=109	=109	=109	=109	=109	=109
1i	C#:min	4.g#	_	2r	.	1r	.	.	208.358	.	voice
.	.	8r	.	.	.	.	.	.	.	.	.
.	.	2r	.	4r	.	.	.	.	.	.	.
.	.	.	.	8r	.	.	.	.	.	.	.
.	.	.	.	8f#	Ooh	.	.	.	.	.	.
=110	=110	=110	=110	=110	=110	=110	=110	=110	=110	=110	=110
2-VI	A:maj	2r	.	16e	_	1r	.	.	210.286	.	voice
.	.	.	.	8c#	_	.	.	.	.	.	.
.	.	.	.	[16c#	_	.	.	.	.	.	.
.	.	.	.	4c#]	.	.	.	.	.	.	.
2-VII	B:maj	8B	Whoa-	8r	.	.	.	.	211.25	.	voice
.	.	8c#	-oh-	8A	Ah!	.	.	.	.	.	.
.	.	8e	-oh-	8r	.	.	.	.	.	.	.
.	.	8c#	-oh!	8ee	Ooh!	.	.	.	.	.	.
=111	=111	=111	=111	=111	=111	=111	=111	=111	=111	=111	=111
*>Label>>Fadeout	*>Label>>Fadeout	*>Label>>Fadeout	*>Label>>Fadeout	*>Label>>Fadeout	*>Label>>Fadeout	*>Label>>Fadeout	*>Label>>Fadeout	*>Label>>Fadeout	*>Label>>Fadeout	*>Label>>Fadeout	*>Label>>Fadeout
1i	C#:min	8r	.	1r	.	1r	.	.	212.214	newline	voice
.	.	8c#	I	.	.	.	.	.	.	.	.
.	.	8e	al-	.	.	.	.	.	.	.	.
.	.	8e	-ways	.	.	.	.	.	.	.	.
.	.	4f#	feel	.	.	.	.	.	.	.	.
.	.	4c#	like	.	.	.	.	.	.	.	.
=112	=112	=112	=112	=112	=112	=112	=112	=112	=112	=112	=112
2-VI	A:maj	8r	.	1r	.	1r	.	.	214.151	.	voice
.	.	8c#	some-	.	.	.	.	.	.	.	.
.	.	8e	-bo-	.	.	.	.	.	.	.	.
.	.	8e	-dy's	.	.	.	.	.	.	.	.
2-VII	B:maj	4b	wa-	.	.	.	.	.	215.119	.	voice
.	.	8a	-tching	.	.	.	.	.	.	.	.
.	.	8a	me!	.	.	.	.	C	.	.	.
=113	=113	=113	=113	=113	=113	=113	=113	=113	=113	=113	=113
1i	C#:min	4.g#	_	1r	.	1r	.	.	216.087	.	voice
.	.	8r	.	.	.	.	.	.	.	.	.
.	.	8r	.	.	.	.	.	.	.	.	.
.	.	8g#	Who's	.	.	.	.	.	.	.	.
.	.	8g	pla-	.	.	.	.	.	.	.	.
.	.	8f#	-ying	.	.	.	.	.	.	.	.
=114	=114	=114	=114	=114	=114	=114	=114	=114	=114	=114	=114
2-VI	A:maj	8f#	tricks	2r	.	1r	.	.	218.024	.	voice
.	.	8f#	on	.	.	.	.	.	.	.	.
.	.	4g#	me?	.	.	.	.	C	.	.	.
2-VII	B:maj	2r	.	8r	.	.	.	.	218.992	.	voice
.	.	.	.	8e 8g#	Who's	.	.	.	.	.	.
.	.	.	.	8d# 8f#	wa-	.	.	.	.	.	.
.	.	.	.	8c# 8e	-tching	.	.	.	.	.	.
=115	=115	=115	=115	=115	=115	=115	=115	=115	=115	=115	=115
1i	C#:min	8r	.	8c# 8e	me?	1r	.	.	219.961	newline	voice
.	.	8c#	I	8r	.	.	.	.	.	.	.
.	.	8e	al-	2.r	.	.	.	.	.	.	.
.	.	8e	-ways	.	.	.	.	.	.	.	.
.	.	4f#	feel	.	.	.	.	.	.	.	.
.	.	4c#	like	.	.	.	.	.	.	.	.
=116	=116	=116	=116	=116	=116	=116	=116	=116	=116	=116	=116
2-VI	A:maj	8r	.	1r	.	1r	.	.	221.892	.	voice
.	.	8c#	some-	.	.	.	.	.	.	.	.
.	.	8e	-bo-	.	.	.	.	.	.	.	.
.	.	8e	-dy's	.	.	.	.	.	.	.	.
2-VII	B:maj	4b	wa-	.	.	.	.	.	222.858	.	voice
.	.	8a	-tching	.	.	.	.	.	.	.	.
.	.	8a	me!	.	.	.	.	C	.	.	.
=117	=117	=117	=117	=117	=117	=117	=117	=117	=117	=117	=117
1i	C#:min	4.g#	_	1r	.	1r	.	.	223.824	.	voice
.	.	8r	.	.	.	.	.	.	.	.	.
.	.	8r	.	.	.	.	.	.	.	.	.
.	.	16g	Can	.	.	.	.	.	.	.	.
.	.	16g	I	.	.	.	.	.	.	.	.
.	.	8f#	have	.	.	.	.	.	.	.	.
.	.	8f#	my	.	.	.	.	.	.	.	.
=118	=118	=118	=118	=118	=118	=118	=118	=118	=118	=118	=118
2-VI	A:maj	6f#	pri-	2r	.	1r	.	.	225.756	.	voice
.	.	6c#	-va-	.	.	.	.	.	.	.	.
.	.	[6c#	-cy?	.	.	.	.	C	.	.	.
2-VII	B:maj	8c#]	_	8r	.	.	.	.	226.722	.	voice
.	.	[8B	_	8c#	Whoa-	.	.	.	.	.	.
.	.	4B]	_	8e	-oh-	.	.	.	.	.	.
.	.	.	.	8c#	-oh!	.	.	.	.	.	.
=119	=119	=119	=119	=119	=119	=119	=119	=119	=119	=119	=119
1i	C#:min	8r	.	1r	.	1r	.	.	227.687	newline	voice
.	.	8c#	I	.	.	.	.	.	.	.	.
.	.	8e	al-	.	.	.	.	.	.	.	.
.	.	8e	-ways	.	.	.	.	.	.	.	.
.	.	4f#	feel	.	.	.	.	.	.	.	.
.	.	4c#	like	.	.	.	.	.	.	.	.
=120	=120	=120	=120	=120	=120	=120	=120	=120	=120	=120	=120
2-VI	A:maj	8r	.	1r	.	1r	.	.	229.628	.	voice
.	.	8c#	some-	.	.	.	.	.	.	.	.
.	.	8e	-bo-	.	.	.	.	.	.	.	.
.	.	8e	-dy's	.	.	.	.	.	.	.	.
2-VII	B:maj	4b	wa-	.	.	.	.	.	230.599	.	voice
.	.	8a	-tching	.	.	.	.	.	.	.	.
.	.	8a	me!	.	.	.	.	C	.	.	.
=121	=121	=121	=121	=121	=121	=121	=121	=121	=121	=121	=121
1i	C#:min	4.g#	_	1r	.	1r	.	.	231.569	.	voice
.	.	8r	.	.	.	.	.	.	.	.	.
.	.	8r	.	.	.	.	.	.	.	.	.
.	.	8g#	Who's	.	.	.	.	.	.	.	.
.	.	8f#	pla-	.	.	.	.	.	.	.	.
.	.	8f#	-ying	.	.	.	.	.	.	.	.
=122	=122	=122	=122	=122	=122	=122	=122	=122	=122	=122	=122
2-VI	A:maj	8f#	tricks	1r	.	1r	.	.	233.51	.	voice
.	.	8c#	on	.	.	.	.	.	.	.	.
.	.	4c#	me?	.	.	.	.	C	.	.	.
2-VII	B:maj	2r	.	.	.	.	.	.	234.48	.	voice
1r;	N	r;	.	r;	.	r;	.	.	235.45	.	r
1r;	N	r;	.	r;	.	r;	.	.	241.659	.	r
*-	*-	*-	*-	*-	*-	*-	*-	*-	*-	*-	*-
!!!BillboardChartDate: 1984/01/28, 1984/03/17
!!!BillboardPeak: 2, 2
!!!BillboardWeeksOnChart: 19, 19
!!!COC: Rockwell
!!!ENC: Nathaniel Condit-Schultz
!!!EST: Awating manual error checking and editing.
!!!OTL: Somebody's Watching Me
!!!RDF**harte: Chris Harte's syntax, used by MIREX
!!!RDF**harmony: **recip + pitch class of root + harmonic quality
!!!RDF**leadinstrument: original McGill primary instrumentation annotation
!!!RDF**phrase: newline = linebreak in original McGill transcription
!!!RDF**timestamp: McGill audio timestamp in seconds
!!!RDT: 2017/01/12/
!!!SampleActualRank: 73,  3
!!!SampleID#: 334, 882
!!!SampleTargetRank: 73,  4
!!!MBID: 81ad1282-c306-4bbb-92f7-88675e4dcbdb
